public/images/icons/account-plus.svg

<svg xmlns="http://www.w3.org/2000/svg" fill="currentColor" viewBox="0 0 24 24"><path d="M15 14c-2.67 0-8 1.33-8 4v2h16v-2c0-2.67-5.33-4-8-4m-9-4V7H4v3H1v2h3v3h2v-3h3v-2m6 2a4 4 0 0 0 4-4 4 4 0 0 0-4-4 4 4 0 0 0-4 4 4 4 0 0 0 4 4Z"/></svg>

<svg xmlns="http://www.w3.org/2000/svg" viewBox="0 0 24 24" fill="currentColor"><path d="M15,14C12.33,14 7,15.33 7,18V20H23V18C23,15.33 17.67,14 15,14M6,10V7H4V10H1V12H4V15H6V12H9V10M15,12A4,4 0 0,0 19,8A4,4 0 0,0 15,4A4,4 0 0,0 11,8A4,4 0 0,0 15,12Z" /></svg>
